X:1
T:Till skogs en liten fågel flög
T:Till skogs en liten fågel flög
T:Otto Lindblad
T:Efter P. D. A. Atterbom
C:Otto Lindblad
Z:Efter P. D. A. Atterbom
%%score [ 1 2 3 4 ]
L:1/8
Q:1/4=94
M:6/8
K:G
V:1 treble-8 nm="T1"
V:2 treble-8 nm="T2"
V:3 bass nm="B1"
V:4 bass nm="B2"
V:1
!p!"^Andantino" D | B2 B (A>B) A | d2 d d2 c |!<(! B2 d g2 a!<)! | a2 ^c d z!p! d | e2 e (A>B) c | %6
w: Till|skogs en li- * ten|få- gel flög; från|som- mar- him- len|blå och hög han|sjöng: det kväl- * las|
 d2 d !>!d3 | d c c B2 A | G2 A B2 z |!f!!>(! g3 e2!>)! z |"^dim." (e2 d) c2 z |!pp! A B c d2 c | %12
w: re'n, far- väl!|Jag fly- ger bort, du|go- da själ:|långt bort,|långt * bort,|men jag är hos dig|
 B2 A d2 z |!f!!>(! g3 e2!>)! z |!>(! (e2 d) c2!>)! z |!p! A!<(! B c!<)!!>(! e2 d!>)! | %16
w: in- nan kort,|långt bort,|långt * bort,|men jag är hos dig|
 d2 f g2 z |] %17
w: in- nan kort.|
V:2
!p! D | G2 G F2 F | G2 G A2 A |!<(! B2 c B2 ^c!<)! | d2 A A z!p! A | A2 A F2 F | G2 G !>!^G3 | %7
w: Till|skogs en li- ten|få- gel flög; från|som- mar- him- len|blå och hög han|sjöng: det kväl- las|re'n, far- väl!|
 A A F G2 F | G2 F G2 z |!f!!>(! e3 c2!>)! z |"^dim." B3 A2 z |!pp! F G A B2 A | G2 F G2 z | %13
w: Jag fly- ger bort, du|go- da själ:|långt bort,|långt bort,|men jag är hos dig|in- nan kort,|
!f!!>(! e3 c2!>)! z |!>(! B3 A2!>)! z |!p! F!<(! G A!<)!!>(! ^A2 B!>)! | =A2 c B2 z |] %17
w: långt bort,|långt bort,|men jag är hos dig|in- nan kort.|
V:3
!p! D, | D,2 D, D,2 D, | D,2 D, D,2 D, |!<(! D,2 A, G,2 G,!<)! | F,2 G, F, z!p! F, | %5
w: Till|skogs en li- ten|få- gel flög; från|som- mar- him- len|blå och hög han|
 F,2 F, D,2 D, | D,2 D, !>!E,3 | E, E, _E, D,2 D, | D,2 D, D,2 z |!f!!>(! C3 G,2!>)! z | %10
w: sjöng: det kväl- las|re'n, far- väl!|Jag fly- ger bort, du|go- da själ:|långt bort,|
"^dim." ^G,3 A,2 z |!pp! D, D, D, D,2 D, | D,2 D, D,2 z |!f!!>(! C3 G,2!>)! z | %14
w: långt bort,|men jag är hos dig|in- nan kort,|långt bort,|
!>(! ^G,3 A,2!>)! z |!p! D,!<(! D, D,!<)!!>(! ^C,2 D,!>)! | D,2 D, D,2 z |] %17
w: långt bort,|men jag är hos dig|in- nan kort.|
V:4
!p! D, | G,,2 G,, C,2 C, | B,,2 B,, F,,2 F,, |!<(! (G,,G,) F, E,2 E,!<)! | D,2 E, D, z!p! D, | %5
w: Till|skogs en li- ten|få- gel flög; från|som- * mar- him- len|blå och hög han|
 C,2 C, C,2 A,, | B,,2 B,, !>!B,,3 | A,, A,, A,, D,2 C, | B,,2 A,, G,,2 z |!f!!>(! C,3 C,2!>)! z | %10
w: sjöng: det kväl- las|re'n, far- väl!|Jag fly- ger bort, du|go- da själ:|långt bort,|
"^dim." E,3 A,,2 z |!pp! C, B,, A,, G,,2 F,, | G,,2 C, B,,2 z |!f!!>(! C,3 C,2!>)! z | %14
w: långt bort,|men jag är hos dig|in- nan kort,|långt bort,|
!>(! E,3 A,,2!>)! z |!p! C,!<(! B,, A,,!<)!!>(! G,,2 G,,!>)! | F,,2 A,, G,,2 z |] %17
w: långt bort,|men jag är hos dig|in- nan kort.|

